X:1
T:Beautiful Love
C:V. Young
Z:Copyright © www.realbook.site
L:1/4
M:4/4
I:linebreak $
K:Dmin
V:1 treble nm=" " snm=" "
V:1
 D E F |:"Em7b5" A3 G |"A7#5" F3/2 E/ D E/F/- |"Dm7" F4 | z/ F3/2 G A |$"Gm7" c3 B | %6
"C7" A3/2 G/ F G/A/- |"Fmaj7" A4 |"Em7b5" z/ A3/2"A7" =B ^c |$"Dm7" e d3 |"Gm7" c B2 D |"Bb7" E4 | %12
"A7" z/ E3/2 F G |1$"Dm7" A3 D |"Bm7b5" ^C3 D |"Em7b5" E4 |"A7b9" z/ E3/2 F G :|2$ %17
"Dm7" A3"Bm7b5" D |"Bb7" F2"A7" E2 |"Dm7" D4- || D D E F |] %21

